packages/core/src/svgs/tokens/branded/UNDEAD.svg

<svg width="24" height="24" viewBox="0 0 24 24" fill="none" xmlns="http://www.w3.org/2000/svg">
<path d="M5.63263 5.99915C5.83265 5.99915 5.21758 6.64923 4.88252 6.97927C4.47248 7.63435 3.59236 8.94448 3.39233 8.94448C3.14231 8.94448 3.26732 8.69454 3.39233 8.45446C3.51735 8.20443 3.26732 8.32945 2.89227 8.08941C2.51222 7.83938 3.01229 7.83938 3.26231 7.59934C3.51235 7.34932 2.63724 7.47433 2.13717 7.23431C1.63711 6.98427 2.63724 7.10928 3.01229 7.23431C3.38734 7.34932 3.26231 7.10928 3.26231 6.86425C3.26231 6.61422 2.76225 6.24917 2.88227 6.12915C3.00728 6.00414 3.26231 6.61922 3.63237 6.61422C4.01242 6.61422 3.75738 6.00414 3.8824 6.00414C4.00741 6.00414 4.01242 6.61422 4.13243 6.61422C4.26245 6.61422 4.38246 6.00414 4.50748 6.00414C4.6325 6.00414 4.38747 6.61422 4.50748 6.73424C4.63749 6.85925 5.3826 5.99915 5.63263 5.99915ZM17.7492 18.0007C17.5492 18.0007 18.1642 17.3506 18.4993 17.0206C18.9144 16.3705 19.7995 15.0604 19.9995 15.0604C20.2496 15.0604 20.1245 15.3104 19.9995 15.5504C19.8745 15.8005 20.1245 15.6754 20.4996 15.9204C20.8746 16.1655 20.3745 16.1655 20.1245 16.4105C19.8745 16.6555 20.7497 16.5306 21.2496 16.7756C21.7497 17.0256 20.7497 16.9006 20.3745 16.7756C19.9995 16.6555 20.1245 16.9006 20.1245 17.1456C20.1245 17.3906 20.6246 17.7557 20.4996 17.8807C20.3745 18.0007 20.1245 17.3906 19.7495 17.3906C19.3744 17.3906 19.6245 18.0007 19.4994 18.0007C19.3744 18.0007 19.3744 17.3906 19.2494 17.3906C19.1244 17.3906 18.9994 18.0007 18.8743 18.0007C18.7494 18.0007 18.9994 17.3906 18.8743 17.2656C18.7494 17.1506 17.9992 18.0007 17.7492 18.0007Z" fill="#B10001"/>
<path d="M4.24777 12.525C4.32779 12.4049 4.56782 12.1649 4.86785 12.1649C5.1679 12.1649 5.32792 12.3249 5.36792 12.4049C5.53294 12.285 5.91799 12.0649 6.11802 12.1649C6.31805 12.2599 6.94813 12.445 7.23817 12.525C7.40319 12.3249 7.80824 11.9449 8.10829 12.04C8.48332 12.1649 8.85838 12.4049 8.85838 12.645C8.85838 12.84 8.2783 14.5752 7.98326 15.4153H8.60835L9.35844 12.765C9.47846 12.565 9.90848 12.14 10.6036 12.04C11.4738 11.9199 12.0988 12.04 12.2238 12.645C12.3089 12.565 12.5738 12.38 12.9739 12.285C13.3739 12.1849 14.384 12.245 14.8391 12.285C14.9242 12.245 15.0892 12.3049 15.0892 12.885C15.0892 13.6101 14.5892 14.3352 14.2191 14.3352C13.844 14.3352 13.594 13.9701 13.719 13.8502C13.844 13.7301 13.969 13.3701 13.719 13.4901C13.469 13.6101 12.4688 15.5404 12.7189 15.5404C12.8839 15.5404 13.254 15.2853 13.569 15.0753C13.734 14.9603 13.879 14.8553 13.969 14.8152C14.1691 14.7152 14.384 14.9353 14.4691 15.0552L15.5893 12.4049C15.6743 12.285 15.8892 12.0649 16.0894 12.1649C16.2893 12.2599 16.3394 12.8451 16.3394 13.1251C16.8394 12.765 17.8845 12.0649 18.0846 12.1649C18.3347 12.285 17.5845 13.6101 16.7094 14.2151C16.9194 14.6553 17.3345 15.5853 17.3345 15.7804C17.3745 15.7004 17.5095 15.5404 17.7095 15.5404C17.9096 15.5404 18.0396 15.4604 18.0846 15.4153C17.8746 15.3753 17.4595 15.2503 17.4595 15.0552V13.8502C17.7495 13.2901 18.5596 12.1649 19.4548 12.1649C19.7047 12.1649 20.1749 12.2349 20.0749 12.525C20.2849 12.4049 20.75 12.1849 20.95 12.285C21.1049 12.3599 20.8699 12.72 20.6399 13.07C20.5049 13.275 20.3698 13.4751 20.3249 13.6101C20.1998 13.9701 19.8248 14.4553 19.4548 14.4553C19.0797 14.4553 18.7047 14.0902 18.8296 13.8552C18.7047 13.9302 18.4796 14.1151 18.5797 14.2102C18.6503 14.2636 18.7276 14.3072 18.8097 14.3402C19.0097 14.4402 19.2897 14.5752 19.4548 14.8152C19.6548 15.1053 19.7848 15.5004 19.8298 15.6604C19.7448 16.0605 19.4297 16.8606 18.8296 16.8606C18.2296 16.8606 17.1695 16.9455 16.7094 16.9855C16.5444 16.9455 16.2393 16.8155 16.3394 16.6256C16.4394 16.4305 16.4594 16.3005 16.4594 16.2605L15.7093 15.1753L15.3392 16.2605C15.1342 16.5005 14.6691 16.9855 14.4691 16.9855C14.2691 16.9855 14.1341 16.6655 14.0941 16.5005C13.804 16.6655 13.1689 16.9855 12.9689 16.9855H11.8488C11.6438 16.9455 11.2237 16.7905 11.2237 16.5005C11.0586 16.6655 10.6536 16.9855 10.3536 16.9855C10.0535 16.9855 9.39845 16.6655 9.10341 16.5005C9.10341 16.5855 9.05341 16.7455 8.85338 16.7455H7.36318C7.31817 16.8255 7.16316 16.9855 6.86311 16.9855C6.56308 16.9855 5.74297 16.6655 5.36292 16.5005C5.11789 16.7005 4.54281 17.0806 4.24278 16.9855L3.49268 16.7455L4.24278 12.525H4.24777ZM9.97849 15.2954C10.0635 15.2153 10.2535 15.1053 10.3536 15.2954L11.1037 13.6101C11.1437 13.4901 11.1737 13.27 10.9787 13.3701C10.7286 13.4901 10.4786 13.6101 10.3536 14.0902C10.2535 14.4752 10.0635 15.0553 9.97849 15.2954Z" fill="#5A0000"/>
<path fill-rule="evenodd" clip-rule="evenodd" d="M5.12269 6.51903C5.45774 6.55902 6.09782 6.77906 5.9978 7.34413C5.90877 7.70117 5.79173 8.05063 5.64775 8.38927C5.39773 9.05939 5.13769 9.73941 5.37272 9.81946C5.54775 9.86951 5.80278 9.1294 6.07782 8.33426C6.39286 7.42915 6.7279 6.45401 6.99794 6.51903C7.39798 6.61404 7.66303 6.79406 7.74803 6.86907C7.78804 6.71405 7.92305 6.41901 8.12308 6.51903C8.32311 6.61404 8.62314 6.71405 8.74817 6.75406L8.99819 7.93421C9.28823 7.41915 9.92333 6.42401 10.1233 6.51903C10.3233 6.61404 10.3734 6.79406 10.3734 6.86907C10.4983 6.71405 10.7735 6.41901 10.8735 6.51903L11.2485 6.86907C11.6235 6.79406 12.3986 6.63404 12.4986 6.63404C12.5986 6.63404 13.0387 6.94908 13.2488 7.1091C13.2888 6.98908 13.4238 6.75406 13.6238 6.75406C13.8238 6.75406 15.4591 6.83407 16.2491 6.86907C16.3742 6.94908 16.5992 7.17911 16.4992 7.45914C16.3742 7.80919 15.4991 8.28426 14.999 8.28426C15.124 8.36427 15.374 8.56929 15.374 8.75427C15.374 8.94434 14.959 9.30442 14.7489 9.46439C15.039 9.46439 15.6241 9.51445 15.6241 9.69939C15.789 9.57944 16.1491 9.34934 16.2491 9.34934C16.2841 9.34934 16.4191 9.13442 16.6192 8.82428C17.1492 8.00922 18.1144 6.51903 18.7495 6.51903C18.8745 6.55902 19.1245 6.65904 19.1245 6.75406C19.2096 6.67405 19.4496 6.51903 19.7496 6.51903C20.0497 6.51903 20.2097 6.67405 20.2497 6.75406L21.3748 6.63404C21.5849 6.67405 21.9999 6.82407 21.9999 7.1091C21.9999 7.45914 21.1248 9.9345 20.8747 10.4095C20.6748 10.7845 19.2895 11.1096 18.6244 11.2297C18.4594 11.3096 18.1244 11.4447 18.1244 11.3496V10.7145C17.8988 10.9193 17.6464 11.0926 17.3743 11.2297C17.2743 11.2297 17.2493 10.4445 17.2493 10.0545C17.0842 10.3295 16.7243 10.8796 16.6241 10.8796C16.4992 10.8796 16.3742 10.8796 15.8741 11.3496C15.749 11.3496 15.4991 11.2997 15.4991 11.1146L15.514 10.9246C15.539 10.7246 15.5641 10.5246 15.374 10.5246C15.224 10.5246 15.124 10.6445 15.039 10.7446C14.9789 10.8195 14.924 10.8796 14.8739 10.8796L14.7039 10.8646C14.4339 10.8346 13.9388 10.7896 13.7489 10.8796C13.5488 10.9746 13.3337 11.1546 13.2488 11.2297L12.3737 10.2896C12.2486 10.4045 11.9236 10.6896 11.6235 10.8796C11.3985 11.0196 11.0385 11.0796 10.7335 11.1247C10.5284 11.1546 10.3484 11.1846 10.2484 11.2297C10.1334 11.2846 10.0684 11.3647 10.0233 11.4246C9.97327 11.4896 9.93827 11.5297 9.87327 11.4697L9.37325 10.9946C9.20822 11.1446 8.84818 11.4297 8.74817 11.3947C8.64815 11.3597 8.37312 11.1146 8.2481 10.9946L8.12308 10.2896L7.87305 10.7596C7.74803 10.9197 7.42299 11.2597 7.12295 11.3496C6.82292 11.4447 6.41286 11.1496 6.24784 10.9996C6.20783 11.1146 6.04781 11.3496 5.74777 11.3496C5.44774 11.3496 4.53762 11.0346 4.12256 10.8796L5.12269 6.51903ZM11.3735 8.16924L11.7486 7.93421L11.8736 8.40427C11.7886 8.79429 11.4985 9.62938 10.9984 9.81946L11.3735 8.16924ZM19.8747 8.16924L20.3746 7.93421V8.75427C20.2897 9.15437 19.9996 9.9345 19.4995 9.9345L19.8747 8.16924Z" fill="#5A0000"/>
<path fill-rule="evenodd" clip-rule="evenodd" d="M5.16877 12.3549C5.16877 12.0699 4.91873 11.9999 4.78873 11.9999C4.58369 11.9999 4.27865 12.2399 4.14863 12.3549C3.89861 13.6302 3.40854 16.2155 3.51356 16.4054C3.59857 16.5655 3.8536 16.4054 4.16364 16.2105C4.31866 16.1155 4.48868 16.0105 4.6637 15.9304C5.16877 15.6904 6.06389 15.2153 6.18891 14.6202C6.28892 14.1452 6.06389 14.0201 5.93887 14.0201C6.18891 13.7851 6.69897 13.215 6.69897 12.835C6.69897 12.3549 6.44894 12.1199 5.93387 12.1199C5.52882 12.1199 5.25379 12.2799 5.16877 12.3549ZM5.04376 13.0701L4.91374 13.6701C5.04376 13.6302 5.3488 13.5501 5.55382 13.5501C5.76385 13.39 6.1139 13.05 5.80386 12.95C5.50381 12.8601 5.16877 12.99 5.04376 13.0701ZM4.65871 14.7403L4.53368 15.3353C4.83373 15.2553 5.4238 15.0253 5.4238 14.7353C5.4238 14.4552 4.91374 14.6202 4.65871 14.7353V14.7403Z" fill="#D00008"/>
<path d="M7.97353 12C7.56348 12 7.20842 12.7951 7.08341 13.1902L6.39332 15.8105C6.15829 15.8906 5.67822 16.0756 5.67822 16.1706C5.67822 16.2656 6.01827 16.2857 6.1883 16.2857C6.2333 16.3257 6.33331 16.4056 6.39833 16.4056C6.45832 16.4056 6.62335 16.2506 6.69836 16.1706H8.60861L8.86364 15.9306C8.94865 16.0906 9.2987 16.4056 10.0138 16.4056C10.7289 16.4056 11.1639 15.8556 11.289 15.5755C11.589 14.7754 12.179 13.1452 12.179 12.9552C12.179 12.7152 12.179 12 11.0289 12C10.7101 11.9941 10.3964 12.0807 10.1257 12.2493C9.85497 12.418 9.63897 12.6614 9.50372 12.9502L8.73863 15.3355H7.33844C7.56441 14.5715 7.81794 13.8158 8.09854 13.0702C8.35358 12.4752 8.48359 12 7.97353 12ZM9.49873 15.3355L10.2638 12.9552C10.3489 12.8752 10.6189 12.7402 11.0289 12.8351C11.434 12.9302 11.3689 13.2702 11.279 13.4302L10.2288 15.5105C10.2638 15.3005 10.1688 15.0354 10.1338 14.9754C10.1338 15.2154 9.92381 15.3355 9.88379 15.3355H9.49873ZM10.1338 15.6906C10.1838 15.6405 10.2138 15.5805 10.2288 15.5105L10.1338 15.6906ZM14.2193 13.1902C14.0894 13.3902 13.8892 13.7903 14.0894 13.7903C14.3443 13.7903 14.8544 13.1902 14.9844 12.9552C15.1095 12.7152 15.1095 12.2401 14.2193 12.2401C13.3292 12.2401 12.6892 12.2401 12.4341 12.9552C12.1549 13.8214 11.8998 14.6952 11.669 15.5755C11.5439 15.8505 11.419 16.4056 11.9241 16.4056H13.0742C13.4543 16.2506 14.2443 15.8356 14.3443 15.4555C14.4744 14.9754 14.4744 14.6204 14.2193 14.7404C14.1343 14.7805 13.9343 14.9404 13.7043 15.1255C13.2442 15.4955 12.6492 15.9706 12.5641 15.8105C12.5495 15.7853 12.5346 15.7604 12.5192 15.7355L12.4691 15.6405C12.4541 15.5805 12.4691 15.5105 12.5192 15.2905L12.5641 15.0955C12.6641 14.6204 12.9441 13.7853 13.0742 13.4302C13.2442 13.2702 13.6343 12.9552 13.8343 12.9552C14.0894 12.9552 14.3543 12.9552 14.2193 13.1902ZM16.3846 12.7152C16.4846 12.2401 16.2596 12.0401 16.1346 12C15.9846 12 15.8746 12.2901 15.7595 12.6001C15.6951 12.8068 15.6062 13.0049 15.4946 13.1902C15.2395 13.5503 14.2193 16.2907 14.4744 16.4056C14.6744 16.5056 15.1544 15.9706 15.3645 15.6906C15.3645 15.2955 15.4645 14.5004 15.8746 14.5004C16.2846 14.5004 16.9797 15.5355 17.2748 16.0505C16.8747 16.1456 16.8547 16.3257 16.8947 16.4056C18.88 16.6407 19.055 16.4207 19.4151 15.9706L19.4451 15.9306C19.7901 15.5055 19.7201 15.2705 19.61 14.8805L19.575 14.7404C19.505 14.4954 19.2751 14.3454 19.065 14.2103C18.8649 14.0804 18.68 13.9603 18.68 13.7853C18.68 13.4302 19.32 13.1902 19.575 13.1902C19.7201 13.1902 19.6951 13.4302 19.675 13.6503C19.6601 13.8153 19.6451 13.9754 19.7 14.0253C19.8301 14.1454 20.2101 13.7402 20.4652 13.4252C20.7202 13.1152 21.1002 12.3551 20.9752 12.2401C20.9002 12.17 20.6902 12.3451 20.5051 12.5052C20.3801 12.6152 20.2601 12.7152 20.2101 12.7152C20.1601 12.7152 20.1351 12.6351 20.0951 12.5351C20.0301 12.3601 19.945 12.1201 19.7 12.1201C19.32 12.1201 18.1698 13.0703 18.0449 13.4302C17.9171 13.8167 17.9171 14.234 18.0449 14.6204C18.1149 14.8905 18.5099 15.0804 18.75 15.2005C18.9349 15.2905 19.03 15.3355 18.81 15.3355C18.3999 15.3355 17.7898 15.6506 17.5347 15.8105C17.5347 15.4305 16.9346 14.4604 16.6397 14.0253C17.2798 13.6653 18.4249 12.2401 18.1698 12.1201C17.9698 12.0201 16.8097 12.8701 16.2596 13.3103L16.3846 12.7102V12.7152Z" fill="#D00008"/>
<path d="M5.24364 7.16937C5.34365 6.6443 5.03861 6.51428 4.87358 6.51428C4.57355 6.40926 4.2535 6.90933 4.12349 7.16937C4.00347 7.78444 3.72843 9.08456 3.63343 9.3996C3.5084 9.79469 3.13335 11.1049 4.62356 11.2399C6.09874 11.3699 6.47379 9.56471 6.72383 8.38453L6.73383 8.34952C6.77883 8.12449 6.82884 7.92446 6.86884 7.74444C7.04887 6.98434 7.13389 6.61929 6.73383 6.51428C6.33878 6.41427 5.94872 8.1895 5.7387 9.13462C5.68869 9.38466 5.63869 9.58466 5.61368 9.6647C5.49366 10.0548 5.11861 10.5798 4.62356 10.4497C4.2685 10.3548 4.67856 9.03964 4.9836 8.06448C5.10362 7.68443 5.20863 7.35439 5.24364 7.16937ZM8.58907 9.26962C8.38905 9.26962 8.014 7.4344 7.84897 6.51428C7.22889 6.51428 6.23377 11.3649 6.48379 11.3649C6.73383 11.3649 7.10388 10.9748 7.22889 10.7148C7.2689 10.6298 7.2939 10.4648 7.3239 10.2848C7.38892 9.88476 7.47392 9.3996 7.72396 9.3996C8.02399 9.3996 8.25903 10.7148 8.34404 11.3699C8.71409 11.3699 9.20916 10.3198 9.33417 9.79469C9.45918 9.26962 9.70923 8.61455 9.8342 8.34952C9.95426 8.08948 10.2043 6.51428 9.8342 6.51428C9.62421 6.51428 9.34918 7.34939 9.09414 8.09948C8.89412 8.71456 8.70409 9.26962 8.59407 9.26962H8.58907ZM13.4298 6.90933C13.2596 7.25937 13.0047 7.95947 13.3047 7.95947C13.6748 7.95947 15.785 7.95947 16.03 7.4344C16.2301 7.01434 14.3798 6.90933 13.4298 6.90933ZM13.0546 9.26962C12.7546 9.1646 13.0946 8.52454 13.3047 8.2195C13.8398 8.26451 14.8899 8.45454 14.7899 8.87453C14.6698 9.3996 13.4298 9.3996 13.0546 9.26962ZM12.3096 10.4497L12.8697 11.2399C12.8896 11.1049 13.0546 10.8398 13.5497 10.8398C13.9784 10.8588 14.405 10.7694 14.7899 10.5798C14.8899 10.5298 14.9799 10.5197 15.0599 10.5098C15.1949 10.4948 15.285 10.4798 15.285 10.3198C15.285 10.0548 14.4198 9.79469 13.7997 9.79469C13.2997 9.79469 12.5996 10.2298 12.3096 10.4497Z" fill="#D00008"/>
<path fill-rule="evenodd" clip-rule="evenodd" d="M10.9487 6.90932C10.9487 6.59428 10.6988 6.50928 10.5737 6.50928C10.2737 6.50928 10.2037 6.94933 10.2037 7.16936C9.95363 8.61455 9.48355 11.4699 9.58357 11.3699C9.63357 11.3149 9.7086 11.3049 9.84862 11.2898C10.0486 11.2649 10.3687 11.2248 10.9487 11.0249C11.7389 10.7498 12.1889 9.91474 12.309 9.52969C12.4339 8.8296 12.709 7.37939 12.809 7.16936C12.894 6.98434 12.679 6.86932 12.4989 6.7693C12.4189 6.7243 12.3489 6.6843 12.309 6.64429C12.2089 6.54428 11.3588 6.77431 10.9487 6.90932ZM10.6988 7.95946L10.1987 10.4497C10.6137 10.3648 11.4938 9.99969 11.6888 9.26961C11.8889 8.53454 11.9389 7.64942 11.9389 7.29938L10.6988 7.95447V7.95946ZM15.5343 10.0548C15.6594 9.9697 15.9845 9.76971 16.2794 9.66469C16.8145 8.56954 18.0147 6.40926 18.5097 6.51427C18.9948 6.61429 18.7998 7.03435 18.5748 7.5294C18.5097 7.66443 18.4397 7.81445 18.3847 7.95946C18.1847 8.47953 18.0546 9.92466 18.0147 10.5798L17.3946 11.2399V9.78966H17.0246L16.4045 10.8398C16.1945 10.9299 15.7344 11.1848 15.5343 11.4999C15.4944 11.1498 15.4844 10.3998 15.7843 10.1898L15.5343 10.0548ZM17.3946 9.00463L17.6446 8.35451V8.99961H17.3946V9.00463ZM19.4998 6.51427C19.2999 6.51427 19.0898 6.77431 19.0048 6.90932C18.8848 7.38939 18.6098 8.42952 18.5097 8.74454C18.4097 9.05958 18.2197 10.6248 18.1397 11.3699C18.3447 11.3699 18.9098 11.2999 19.5049 11.0198C20.0022 10.7624 20.4281 10.3863 20.7451 9.92466C21.0288 9.10614 21.2759 8.27516 21.4851 7.43439C21.5852 6.90932 21.1151 6.77431 20.865 6.77431L19.8749 6.90932C19.835 6.77431 19.6998 6.50928 19.5049 6.50928L19.4998 6.51427ZM19.4998 7.82445L19.0048 10.4497C19.423 10.3517 19.8064 10.1409 20.1131 9.8403C20.4199 9.53961 20.6384 9.16063 20.7451 8.74454V7.29938L19.4998 7.82445Z" fill="#D00008"/>
</svg>

<svg xmlns="http://www.w3.org/2000/svg" width="24" height="24" fill="none" viewBox="0 0 24 24">
    <path fill="#B10001" d="M5.633 6c.2 0-.415.65-.75.98-.41.654-1.29 1.964-1.49 1.964-.25 0-.126-.25 0-.49.124-.25-.126-.125-.5-.365-.38-.25.12-.25.37-.49.25-.25-.626-.125-1.126-.365-.5-.25.5-.125.875 0 .375.115.25-.125.25-.37 0-.25-.5-.615-.38-.735.125-.125.38.49.75.485.38 0 .125-.61.25-.61s.13.61.25.61c.13 0 .25-.61.375-.61.126 0-.12.61 0 .73.13.125.876-.735 1.126-.735m12.116 12c-.2 0 .415-.65.75-.98.415-.65 1.3-1.96 1.5-1.96.25 0 .126.25 0 .49-.124.25.126.125.5.37.376.246-.124.246-.374.49-.25.245.625.12 1.125.366.5.25-.5.125-.875 0-.375-.12-.25.125-.25.37s.5.61.375.735c-.125.12-.375-.49-.75-.49-.376 0-.125.61-.25.61-.126 0-.126-.61-.25-.61-.126 0-.25.61-.376.61-.125 0 .125-.61 0-.735C18.75 17.15 18 18 17.75 18"/>
    <path fill="#5A0000" d="M4.248 12.525c.08-.12.32-.36.62-.36s.46.16.5.24c.165-.12.55-.34.75-.24.2.095.83.28 1.12.36.165-.2.57-.58.87-.485.375.125.75.365.75.605 0 .195-.58 1.93-.875 2.77h.625l.75-2.65c.12-.2.55-.625 1.246-.725.87-.12 1.495 0 1.62.605.085-.08.35-.265.75-.36.4-.1 1.41-.04 1.865 0 .085-.04.25.02.25.6 0 .725-.5 1.45-.87 1.45-.375 0-.625-.365-.5-.485s.25-.48 0-.36-1.25 2.05-1 2.05c.165 0 .535-.255.85-.465.165-.115.31-.22.4-.26.2-.1.415.12.5.24l1.12-2.65c.085-.12.3-.34.5-.24.2.095.25.68.25.96.5-.36 1.546-1.06 1.746-.96.25.12-.5 1.445-1.376 2.05.21.44.625 1.37.625 1.565.04-.08.175-.24.375-.24s.33-.08.376-.125c-.21-.04-.626-.165-.626-.36V13.85c.29-.56 1.1-1.685 1.996-1.685.25 0 .72.07.62.36.21-.12.675-.34.875-.24.155.075-.08.435-.31.785-.135.205-.27.405-.315.54-.125.36-.5.845-.87.845-.375 0-.75-.365-.625-.6-.125.075-.35.26-.25.355q.106.08.23.13c.2.1.48.235.645.475.2.29.33.685.375.845-.085.4-.4 1.2-1 1.2s-1.66.085-2.12.125c-.166-.04-.47-.17-.37-.36.1-.195.12-.325.12-.364l-.75-1.086-.37 1.085c-.206.24-.67.725-.87.725s-.336-.32-.376-.485c-.29.166-.925.485-1.125.485h-1.12c-.205-.04-.625-.194-.625-.485-.165.166-.57.485-.87.485s-.956-.32-1.25-.485c0 .085-.05.245-.25.245h-1.49c-.046.08-.2.24-.5.24s-1.121-.32-1.501-.485c-.245.2-.82.58-1.12.485l-.75-.24.75-4.22zm5.73 2.77c.085-.08.276-.19.376 0l.75-1.685c.04-.12.07-.34-.125-.24-.25.12-.5.24-.625.72-.1.385-.29.965-.376 1.205"/>
    <path fill="#5A0000" fill-rule="evenodd" d="M5.123 6.519c.335.04.975.26.875.825a7 7 0 0 1-.35 1.045c-.25.67-.51 1.35-.275 1.43.175.05.43-.69.705-1.485.315-.905.65-1.88.92-1.815.4.095.665.275.75.35.04-.155.175-.45.375-.35.2.095.5.195.625.235l.25 1.18c.29-.515.925-1.51 1.125-1.415s.25.275.25.35c.125-.155.4-.45.5-.35l.376.35c.374-.075 1.15-.235 1.25-.235s.54.315.75.475c.04-.12.175-.355.375-.355s1.835.08 2.625.115c.125.08.35.31.25.59-.125.35-1 .825-1.5.825.125.08.375.285.375.47 0 .19-.415.55-.625.71.29 0 .875.05.875.235.165-.12.525-.35.625-.35.035 0 .17-.215.37-.525.53-.815 1.495-2.305 2.13-2.305.126.04.376.14.376.235a.98.98 0 0 1 .625-.235c.3 0 .46.155.5.235l1.125-.12c.21.04.625.19.625.475 0 .35-.875 2.826-1.125 3.3-.2.375-1.585.7-2.25.82-.166.08-.5.216-.5.12v-.635a3.4 3.4 0 0 1-.75.516c-.1 0-.126-.786-.126-1.175-.165.274-.525.825-.625.825-.125 0-.25 0-.75.47-.125 0-.375-.05-.375-.235l.015-.19c.025-.2.05-.4-.14-.4-.15 0-.25.12-.335.22-.06.075-.115.135-.165.135l-.17-.015c-.27-.03-.765-.075-.955.015-.2.095-.415.275-.5.35l-.875-.94c-.125.115-.45.4-.75.59-.226.14-.585.2-.89.245-.206.03-.386.06-.486.105a.6.6 0 0 0-.225.195c-.05.065-.085.105-.15.045l-.5-.475c-.165.15-.525.435-.625.4s-.375-.28-.5-.4l-.125-.705-.25.47c-.125.16-.45.5-.75.59-.3.095-.71-.2-.875-.35-.04.115-.2.35-.5.35s-1.21-.315-1.625-.47zm6.25 1.65.376-.235.125.47c-.085.39-.376 1.225-.876 1.415zm8.502 0 .5-.235v.82c-.085.4-.375 1.18-.875 1.18z" clip-rule="evenodd"/>
    <path fill="#D00008" fill-rule="evenodd" d="M5.169 12.355c0-.285-.25-.355-.38-.355-.205 0-.51.24-.64.355-.25 1.275-.74 3.86-.635 4.05.085.16.34 0 .65-.195.155-.095.325-.2.5-.28.505-.24 1.4-.715 1.525-1.31.1-.475-.125-.6-.25-.6.25-.235.76-.805.76-1.185 0-.48-.25-.715-.765-.715-.405 0-.68.16-.765.235m-.125.715-.13.6c.13-.04.435-.12.64-.12.21-.16.56-.5.25-.6-.3-.09-.635.04-.76.12m-.385 1.67-.125.595c.3-.08.89-.31.89-.6 0-.28-.51-.115-.765 0z" clip-rule="evenodd"/>
    <path fill="#D00008" d="M7.974 12c-.41 0-.766.795-.89 1.19l-.69 2.62c-.236.08-.716.266-.716.36 0 .096.34.116.51.116.045.04.145.12.21.12.06 0 .225-.155.3-.235h1.91l.256-.24c.085.16.435.475 1.15.475s1.15-.55 1.275-.83c.3-.8.89-2.43.89-2.62 0-.24 0-.956-1.15-.956a1.65 1.65 0 0 0-1.525.95l-.765 2.386h-1.4q.338-1.146.76-2.266c.255-.595.385-1.07-.125-1.07m1.525 3.335.765-2.38c.085-.08.355-.215.765-.12.405.095.34.435.25.595l-1.05 2.08c.035-.21-.06-.475-.095-.535 0 .24-.21.36-.25.36zm.635.356q.074-.075.095-.18zm4.085-2.5c-.13.2-.33.6-.13.6.255 0 .765-.6.895-.836.126-.24.126-.715-.765-.715-.89 0-1.53 0-1.785.715a49 49 0 0 0-.765 2.62c-.125.276-.25.83.255.83h1.15c.38-.154 1.17-.57 1.27-.95.13-.48.13-.835-.125-.715-.085.04-.285.2-.515.386-.46.37-1.055.845-1.14.684l-.045-.075-.05-.095c-.015-.06 0-.13.05-.35l.045-.194c.1-.476.38-1.31.51-1.666.17-.16.56-.475.76-.475.255 0 .52 0 .385.235m2.166-.476c.1-.475-.125-.675-.25-.715-.15 0-.26.29-.376.6a2.7 2.7 0 0 1-.264.59c-.255.36-1.276 3.1-1.02 3.216.2.1.68-.435.89-.715 0-.396.1-1.19.51-1.19s1.105 1.035 1.4 1.55c-.4.095-.42.275-.38.355 1.985.235 2.16.015 2.52-.435l.03-.04c.345-.425.275-.66.165-1.05l-.035-.14c-.07-.246-.3-.396-.51-.53-.2-.13-.385-.25-.385-.426 0-.355.64-.595.895-.595.145 0 .12.24.1.46-.015.165-.03.325.025.375.13.12.51-.285.765-.6.255-.31.635-1.07.51-1.185-.075-.07-.285.105-.47.265-.125.11-.245.21-.295.21s-.075-.08-.115-.18c-.065-.175-.15-.415-.395-.415-.38 0-1.53.95-1.655 1.31a1.9 1.9 0 0 0 0 1.19c.07.27.465.46.705.58.185.09.28.136.06.136-.41 0-1.02.315-1.275.474 0-.38-.6-1.35-.895-1.785.64-.36 1.785-1.785 1.53-1.905-.2-.1-1.36.75-1.91 1.19l.125-.6zM5.244 7.17c.1-.526-.205-.656-.37-.656-.3-.105-.62.395-.75.655-.12.615-.396 1.916-.49 2.23-.126.396-.5 1.706.99 1.84 1.475.13 1.85-1.674 2.1-2.854l.01-.035c.045-.226.095-.426.135-.606.18-.76.265-1.125-.135-1.23-.395-.1-.785 1.676-.995 2.62-.05.25-.1.45-.125.53-.12.39-.495.916-.99.786-.355-.095.055-1.41.36-2.386.12-.38.225-.71.26-.895m3.345 2.1c-.2 0-.575-1.836-.74-2.756-.62 0-1.615 4.85-1.365 4.85s.62-.39.745-.65c.04-.084.065-.25.095-.43.065-.4.15-.884.4-.884.3 0 .535 1.315.62 1.97.37 0 .865-1.05.99-1.575s.375-1.18.5-1.445c.12-.26.37-1.836 0-1.836-.21 0-.485.835-.74 1.585-.2.616-.39 1.17-.5 1.17zm4.84-2.36c-.17.35-.424 1.05-.124 1.05.37 0 2.48 0 2.725-.526.2-.42-1.65-.525-2.6-.525m-.374 2.36c-.3-.105.04-.745.25-1.05.535.045 1.585.235 1.485.655-.12.525-1.36.525-1.735.395m-.745 1.18.56.79c.02-.135.185-.4.68-.4.428.019.855-.07 1.24-.26.1-.05.19-.06.27-.07.135-.015.225-.03.225-.19 0-.265-.865-.525-1.485-.525-.5 0-1.2.435-1.49.655"/>
    <path fill="#D00008" fill-rule="evenodd" d="M10.949 6.91c0-.316-.25-.4-.375-.4-.3 0-.37.44-.37.66-.25 1.445-.72 4.3-.62 4.2.05-.055.125-.065.265-.08.2-.025.52-.065 1.1-.265.79-.275 1.24-1.11 1.36-1.495.125-.7.4-2.15.5-2.36.085-.186-.13-.3-.31-.4a1 1 0 0 1-.19-.126c-.1-.1-.95.13-1.36.265m-.25 1.05-.5 2.49c.415-.085 1.295-.45 1.49-1.18.2-.735.25-1.62.25-1.97l-1.24.654zm4.835 2.095a3.8 3.8 0 0 1 .745-.39c.535-1.095 1.736-3.256 2.23-3.15.486.1.29.52.066 1.014a6 6 0 0 0-.19.43c-.2.52-.33 1.966-.37 2.62l-.62.66V9.79h-.37l-.62 1.05c-.21.09-.67.346-.87.66-.04-.35-.05-1.1.25-1.31zm1.86-1.05.25-.65V9h-.25zm2.106-2.49c-.2 0-.41.26-.495.394-.12.48-.395 1.52-.495 1.836-.1.315-.29 1.88-.37 2.625.205 0 .77-.07 1.365-.35a3.4 3.4 0 0 0 1.24-1.095q.425-1.23.74-2.49c.1-.526-.37-.66-.62-.66l-.99.134c-.04-.135-.175-.4-.37-.4zm0 1.31-.495 2.625a2.35 2.35 0 0 0 1.74-1.705V7.299z" clip-rule="evenodd"/>
</svg>
